X: 35
M:C|
L:1/8
K:A
vcB"^Segno"|\
|:veaag eaag | eggf efg2 | eaag eaag | eg((3fga) gedB |
eaa2 bgaf | edef gfge | defa b2ag |\
 ((3efg)((3fga) gedB "^Segno":|


